!!!COM: Bach, Johann Sebastian
!!!OTL: 9. Ermuntre dich, mein schwacher Geist
!!!ONM: No. 9
!!!OCL: Erk
!!!SCA: BWV 248.12
!!!YOE: Riemenschneider, Albert
!!!OPR: 371 Harmonized Chorales and 69 Chorale Melodies with Figured Bass
!!!OPT: Bach Chorale Harmonizations
!!!ONB: From the "Christmas Oratorio", Part II, No. 3
**harm	**root	**kern	**kern	**kern	**kern
!	!	!bass	!tenor	!alto	!sprno
*Iorgan	*Iorgan	*Iorgan	*Iorgan	*Iorgan	*Iorgan
*>[A,A,B]	*>[A,A,B]	*>[A,A,B]	*>[A,A,B]	*>[A,A,B]	*>[A,A,B]
*>norep[A,B]	*>norep[A,B]	*>norep[A,B]	*>norep[A,B]	*>norep[A,B]	*>norep[A,B]
*>A	*>A	*>A	*>A	*>A	*>A
*k[f#c#g#d#]	*k[f#c#g#d#]	*k[f#c#g#d#]	*k[f#c#g#d#]	*k[f#c#g#d#]	*k[f#c#g#d#]
*E:	*E:	*E:	*E:	*E:	*E:
*met(C)	*met(C)	*met(C)	*met(C)	*met(C)	*met(C)
*M4/4	*M4/4	*M4/4	*M4/4	*M4/4	*M4/4
*MM60	*MM60	*MM60	*MM60	*MM60	*MM60
I	4GG	8E	4G#	4B	4e
.	.	8D#	.	.	.
=1	=1	=1	=1	=1	=1
vi	4EE	4C#	8G#	4c#	4e
.	.	.	[8A	.	.
V7	4DD	4BB	8A]	4d#	4f#
.	.	.	8B	.	.
I	8GG	4E	8G#	8B	8g#
V7d/V	8AA	.	8F#	8c#	8a#
Vb	4DD	8D#	4F#	4d#	4b
.	.	8E	.	.	.
=2	=2	=2	=2	=2	=2
Vc	4DD	4F#	4F#	8c#	4b
.	.	.	.	8d#	.
V7/V	4AA	4FF#	4F#	4e	4a#
V;	4DD;	4BB;	4F#;	4d#;	4b;
Vb/vi	4BB	4BB#	8G#	4d#	4g#
.	.	.	8F#	.	.
=3	=3	=3	=3	=3	=3
IVb	8CC	8C#	8E	4c#	4a
viio7	8FF#	8D#	8F#	.	.
I	8GG	8E	8G#	8B	4g#
IV7	8CC	8AA	8A	8c#	.
V7d	4DD	8A	4B	4d#	4f#
.	.	8G#	.	.	.
I	4GG	8F#	4B	[4e	4g#
.	.	8E	.	.	.
=4	=4	=4	=4	=4	=4
V	2DD	4B	4.B	4e]	2f#
.	.	4BB	.	4d#	.
.	.	.	8A	.	.
I;	4GG;	4E;	4G#;	4B;	4e;
=:|!	=:|!	=:|!	=:|!	=:|!	=:|!
*>B	*>B	*>B	*>B	*>B	*>B
V	4DD	4BB	8B	8d#	4f#
.	.	.	8c#	8e	.
=5	=5	=5	=5	=5	=5
V	8DD	8B	8d#	4.f#	4f#
iib	8AA	8A	8c#	.	.
viiob/ii	4GG#	4G#	4B	.	4g#
.	.	.	.	8e#	.
ii	4AA	4F#	4c#	8f#	4a
.	.	.	.	8e#	.
viioD7/vi	4DD#	4BB#	4d#	4f#	4a
=6	=6	=6	=6	=6	=6
!!linebreak: 2
vi	4EE	4C#	4G#	4f#	8g#
.	.	.	.	.	8f#
V/ii	4EE	4C#	8c#	4e#	4g#
.	.	.	8B	.	.
ii;	4AA;	4FF#;	4A;	4c#;	4f#;
vi	8EE	8C#	8E	8c#	4g#
V7b/vi	8BB	8D#	8F#	8B#	.
=7	=7	=7	=7	=7	=7
vib	4EE	4E	8G#	4c#	4g#
.	.	.	8A	.	.
V7b/ii	4EE	4E#	8B	4c#	4g#
.	.	.	8c#	.	.
ii	4AA	4F#	4A	8c#	8a
.	.	.	.	8d#	8b
viioD7/iii	4AA#	4F##	4A#	8e	4cc#
.	.	.	.	8d#	.
=8	=8	=8	=8	=8	=8
iii	4BB	4G#	4G#	8d#	4cc#
.	.	.	.	8e	.
V7/vi	4BB	4GG#	4G#	4f#	4b#
vi;	4EE;	4C#;	4G#;	4e;	4cc#;
V	4DD	8B	4B	4f#	4dd#
.	.	8A	.	.	.
=9	=9	=9	=9	=9	=9
Ib	4GG	8G#	4B	8e	4ee
.	.	8F#	.	8f#	.
I	4GG	8E	4e	[4g#	4g#
.	.	8D#	.	.	.
IV7b	8CC	8C#	8E	8g#]	4a
viio7	8FF#	8D#	8F#	[8f#	.
vib	4EE	8E	4G#	8f#]	4g#
.	.	8C#	.	8e	.
=10	=10	=10	=10	=10	=10
V7b/V	2AA	8AA#	8c#	2e	2f#
.	.	8GG#	8B	.	.
.	.	8AA#	8c#	.	.
.	.	8FF#	8A#	.	.
V;	4DD;	4BB;	4B;	4d#;	4f#;
Ib	4GG	4GG#	[4B	8e	4b
.	.	.	.	8d#	.
=11	=11	=11	=11	=11	=11
IV	4CC	4AA	8B]	4c#	4cc#
.	.	.	8A	.	.
V7	4DD	4BB	8A	4d#	4b
.	.	.	8G#	.	.
IV7b	8CC	8C#	8G#	8e	4a
viio	8FF#	8D#	8F#	8f#	.
I	4GG	4E	4E	4B	8g#
.	.	.	.	.	8a
=12	=12	=12	=12	=12	=12
ii7b	4AA	4AA	8E	4c#	2f#
.	.	.	16D#	.	.
.	.	.	16C#	.	.
V	4DD	4BB	4D#	4B	.
I;	4GG;	4EE;	4G#;	4B;	4e;
==	==	==	==	==	==
*-	*-	*-	*-	*-	*-
!!!CDT: 1685/3//-1750/7/28
!!!OCY: Deutschland
!!!AGN: chorale
!!!AST: Baroque
!!!AIN: vox
!!!YOY: 1941
!!!PPP: New York; London
!!!PPR: G. Schirmer
!!!ENC: David Huron
!!!EED: David Huron
!!!YEN: United States of America
!!!YER: 1992
!!!YEC: Copyright 1992 David Huron
!!!YEM: Rights to all derivative electronic formats reserved.
!!!YER: March 20, 1996
!!!AMT: simple quadruple
!!!EEV: 1.1
!!chor2scor: -l 2 -s 0.6 -o %b.pmx
